!!!!SEGMENT: pl-gd--ee-1638--002-012_marenzio-luca--motettorum-pro-festis-totius-anni-in-festo-s-trinitaris-te-deum-patrem-ingenitum.krn
!!!cenid: 15xx:1015
!!!COM: Marenzio, Luca
!!!COM-rismID: pe30003955
!!!CDT: ~1553-1599/08/22
!!!CNT: Italian
!!!GTL: Motettorum pro festis totius anni
!!!OTL: In festo S. Trinitaris/Te Deum patrem ingenitum
!!!OMV: 012
!!!PDT: 1588
!!!AGN:
!!!SMS-siglum: PL-GD
!!!SMS-shelfmark: Ee 1638
!!!SMS-shelfwork: 002-012 G
!!!SMS-variant:
!!!SMS-altvar:
!!!NIFC-rismSourceID: 1001202747
!!!NIFC-rismChildID: 990039238
!!!NIFC-islandoraID: pl-gd:57883
!!!URL-pdf-islandora: https://repozytorium.nifc.pl/islandora/object/pl-gd%3A57883/datastream/PDF/view
!!!URL-scan: https://polish.musicsources.pl/pl/lokalizacje/galeria/klocki-introligatorskie/655 @EN{Scan on Polish Music Sources Website} @PL{Skany w portalu Dziedzictwo Muzyki Polskiej w otwartym dostępie}
!!!ONB-nifc: UWAGA: Cantus: s. 622 (lewa), Altus: s. 470 (lewa), Tenor: s. 318 (lewa), Bassus: s. 166 (lewa)
!!!AIN: 1 alto 1 bass 1 soprn 1 tenor
!!!key:
**kern	**text	**kern	**text	**kern	**text	**kern	**text
*part4	*part4	*part3	*part3	*part2	*part2	*part1	*part1
*staff4	*staff4	*staff3	*staff3	*staff2	*staff2	*staff1	*staff1
*I"Basso	*	*I"Tenor	*	*I"Altus	*	*I"Cantus	*
*I'B	*	*I'T	*	*I'A	*	*I'C	*
*Ibass	*	*Itenor	*	*Ialto	*	*Isoprn	*
*ICvox	*	*ICvox	*	*ICvox	*	*ICvox	*
*IG	*	*	*	*	*	*	*
*clefF4	*	*clefC4	*	*clefC3	*	*clefC1	*
*k[]	*	*k[]	*	*k[]	*	*k[]	*
*C:	*	*C:	*	*C:	*	*C:	*
*M2/1	*	*M2/1	*	*M2/1	*	*M2/1	*
*met(C|)	*	*met(C|)	*	*met(C|)	*	*met(C|)	*
=1-	=1-	=1-	=1-	=1-	=1-	=1-	=1-
*xywh-#166:954,548,3547,845	*	*	*	*	*	*	*
*	*	*xywh-#318:1062,407,3450,983	*	*	*	*	*
*	*	*	*	*xywh-#318:1062,407,3450,983	*	*	*
*	*	*	*	*	*	*xywh-#622:1038,414,3545,918	*
!	!	!	!	!	!	!LO:TX:a:B:t=Prestissimo	!
1r	.	0r	.	0e	TE	1r	.
0C	TE	.	.	.	.	0e	TE
=2-	=2-	=2-	=2-	=2-	=2-	=2-	=2-
.	.	0r	.	1.c	De-	.	.
1.E	De-	.	.	.	.	1.g	De-
.	.	.	.	2B/	-um	.	.
=3-	=3-	=3-	=3-	=3-	=3-	=3-	=3-
.	.	0r	.	1c	pa-	.	.
2F\	-um	.	.	.	.	2a\	-um
1E	pa-	.	.	2c\	-trem	1g	pa-
.	.	.	.	2G/	in-	.	.
=4-	=4-	=4-	=4-	=4-	=4-	=4-	=4-
2E\	-trem	0e	TE	2.c\	-ge-	2g/	-trem
2A\	in-	.	.	.	.	2e/	in-
.	.	.	.	4c\	-ni-	.	.
2.E\	-ge-	.	.	1B	-tum	2.g/	-ge-
4E\	-ni-	.	.	.	.	4g/	-ni-
=5-	=5-	=5-	=5-	=5-	=5-	=5-	=5-
1F	-tum	1.c	De-	2r	.	2.a\	-tum
.	.	.	.	2c\	in-	.	.
.	.	.	.	.	.	8g/	.
.	.	.	.	.	.	8f/	.
1r	.	.	.	2.g\	-ge-	4e/	.
.	.	.	.	.	.	4f/	.
.	.	2B\	-um	.	.	2.g/	.
.	.	.	.	4d\	-ni-	.	.
=6-	=6-	=6-	=6-	=6-	=6-	=6-	=6-
*	*ij	*	*	*	*	*	*
0C	Te	1c	pa-	2.e\	-tum	.	.
.	.	.	.	.	.	4f/	.
.	.	.	.	.	.	4e/	.
.	.	.	.	4f\	.	4d/	.
!	!	!	!	!LO:SIC:v:t=custos c	!	!LO:SIC:v:t=custos ee	!
.	.	2c\	-trem	1g	.	1e	.
*	*	*	*	*	*	*xywh-#622:961,1054,3616,815	*
*	*	*	*	*xywh-#470:951,1199,3495,744	*	*	*
!	!	!	!	!LO:LB:g=original	!	!LO:LB:g=original	!
.	.	2G/	in-	.	.	.	.
=7-	=7-	=7-	=7-	=7-	=7-	=7-	=7-
1.AA	De-	2.c\	-ge-	2r	.	0ee	Te
.	.	.	.	2c\	Te	.	.
.	.	4c\	-ni-	.	.	.	.
.	.	1B	-tum	1.e	De-	.	.
2GG#X/	-um	.	.	.	.	.	.
=8-	=8-	=8-	=8-	=8-	=8-	=8-	=8-
!LO:SIC:v:t=custos AA	!	!	!	!	!	!	!
1AA	pa-	0r	.	.	.	1.cc	De-
*xywh-#166:970,1247,3520,687	*	*	*	*	*	*	*
!LO:LB:g=original	!	!	!	!	!	!	!
.	.	.	.	2f\	-um	.	.
2AA/	-trem	.	.	1e	pa-	.	.
2E\	in-	.	.	.	.	2b\	-um
=9-	=9-	=9-	=9-	=9-	=9-	=9-	=9-
*	*	*	*ij	*	*	*	*
2C/	-ge-	0c	Te	2e\	-trem	1cc	pa-
2AA/	-ni-	.	.	2a\	in-	.	.
1C	-tum	.	.	2.e\	-ge-	2cc\	-trem
*	*Xij	*	*	*	*	*	*
.	.	.	.	.	.	2g/	in-
.	.	.	.	4e\	-ni-	.	.
=10-	=10-	=10-	=10-	=10-	=10-	=10-	=10-
0r	.	1.A	De-	2f\	-tum	2.cc\	-ge-
.	.	.	.	2c\	Te	.	.
.	.	.	.	.	.	4cc\	-ni-
.	.	.	.	1.e	De-	1b	-tum
.	.	2G#X/	-um	.	.	.	.
=11-	=11-	=11-	=11-	=11-	=11-	=11-	=11-
!	!	!LO:SIC:v:t=custos c	!	!	!	!	!
2r	.	1A	pa-	.	.	2r	.
*	*	*xywh-#318:1054,1045,3457,868	*	*	*	*	*
!	!	!LO:LB:g=original	!	!	!	!	!
*	*	*	*	*	*	*	*ij
1A	Te	.	.	2f\	-um	1cc	Te
.	.	2c\	-trem	2e\	pa-	.	.
1F\	De-	2c\	in-	2A/	-trem	1a\	De-
=12-	=12-	=12-	=12-	=12-	=12-	=12-	=12-
.	.	2.c\	-ge-	2r	.	.	.
*	*	*	*	*	*ij	*	*
2E\	-um	.	.	2e\	Te	2g/	-um
.	.	4c\	-ni-	.	.	.	.
1F	pa-	1A	-tum	2.c\	De-	1a	pa-
*	*	*	*Xij	*	*	*	*
.	.	.	.	4c\	-um	.	.
=13-	=13-	=13-	=13-	=13-	=13-	=13-	=13-
2F\	-trem	2r	.	2.c\	pa-	2a\	-trem
2C/	in-	2c\	te	.	.	2e/	in-
.	.	.	.	4B/	.	.	.
!	!	!	!	!LO:SIC:v:t=custos c	!	!	!
2.F\	-ge-	2c\	fi-	1A	-trem	2.a\	-ge-
*	*	*	*	*xywh-#470:786,1739,3652,768	*	*	*
!	!	!	!	!LO:LB:g=original	!	!	!
*	*	*	*	*	*Xij	*	*
.	.	2d\	-li-	.	.	.	.
4F\	-ni-	.	.	.	.	4a\	-ni-
=14-	=14-	=14-	=14-	=14-	=14-	=14-	=14-
2E\	-tum	1e	-um	2r	.	2g/	-tum
*	*	*	*	*	*	*	*Xij
2C/	te	.	.	2c\	te	2g/	te
!	!	!	!	!	!	!LO:SIC:v:t=custos b	!
2F\	fi-	1r	.	2c\	fi-	2a\	fi-
*	*	*	*	*	*	*xywh-#622:1109,1662,3474,731	*
!	!	!	!	!	!	!LO:LB:g=original	!
2D/	-li-	.	.	2d\	-li-	2b\	-li-
=15-	=15-	=15-	=15-	=15-	=15-	=15-	=15-
1C	-um	2r	.	1e	-um	1cc	-um
.	.	2c\	v-	.	.	.	.
!LO:SIC:v:t=custos G	!	!	!	!	!	!	!
1F	v-	2c\	-ni	1A	v-	1a	v-
*xywh-#166:965,1771,3547,676	*	*	*	*	*	*	*
!LO:LB:g=original	!	!	!	!	!	!	!
.	.	2d\	ge-	.	.	.	.
=16-	=16-	=16-	=16-	=16-	=16-	=16-	=16-
2G\	-ni	1e	.	2B/	-ni	2g/	-ni-
1A	ge-	.	.	1c	ge-	2.e/	-ge-
.	.	1A	.	.	.	.	.
.	.	.	.	.	.	4d/	.
4G\	.	.	.	4B/	.	4e/	.
4F\	.	.	.	4A/	.	4f/	.
=17-	=17-	=17-	=17-	=17-	=17-	=17-	=17-
0E	.	2B\	.	0e	.	2.g/	.
.	.	1c	.	.	.	.	.
.	.	.	.	.	.	4f/	.
.	.	.	.	.	.	4g/	.
.	.	.	.	.	.	4e/	.
.	.	4B\	.	.	.	1a\	.
.	.	4A\	.	.	.	.	.
=18-	=18-	=18-	=18-	=18-	=18-	=18-	=18-
1E	-ni-	2.B\	.	1e	-ni-	.	.
.	.	.	.	.	.	2g#X/	-ni-
!	!	!LO:SIC:v:t=custos A	!	!	!	!	!
.	.	4B\	-ni-	.	.	.	.
*	*	*xywh-#318:970,1583,3526,868	*	*	*	*	*
!	!	!LO:LB:g=original	!	!	!	!	!
2AA/	-tum	2.A/	-tum	1e	-tum	2.a\	-tum
2A\	te	.	.	.	.	.	.
.	.	4B\	.	.	.	8g#/	.
.	.	.	.	.	.	8f/	.
=19-	=19-	=19-	=19-	=19-	=19-	=19-	=19-
2.A\	ſpi-	1c	.	2r	.	1e	.
.	.	.	.	2e\	te	.	.
4A\	-ri-	.	.	.	.	.	.
2E\	-tum	1r	.	2.e\	ſpi-	1r	.
1A\	ſan-	.	.	.	.	.	.
.	.	.	.	4e\	-ri-	.	.
=20-	=20-	=20-	=20-	=20-	=20-	=20-	=20-
.	.	0r	.	2A/	-tum	0r	.
2G\	-ctum	.	.	1e	ſan-	.	.
2E\	pa-	.	.	.	.	.	.
2.F\	-ra-	.	.	2d\	-ctum	.	.
=21-	=21-	=21-	=21-	=21-	=21-	=21-	=21-
!	!	!	!	!LO:SIC:v:t=custos c	!	!	!
.	.	0r	.	2A/	pa-	0r	.
*	*	*	*	*xywh-#470:849,2288,3573,705	*	*	*
!	!	!	!	!LO:LB:g=original	!	!	!
4E\	.	.	.	.	.	.	.
4E\	.	.	.	1c	-ra-	.	.
8D/	.	.	.	.	.	.	.
8C/	.	.	.	.	.	.	.
2.D/	.	.	.	.	.	.	.
.	.	.	.	2B/	-cli-	.	.
!LO:SIC:v:t=custos C	!	!	!	!	!	!	!
4D/	-cli-	.	.	.	.	.	.
*xywh-#166:937,2333,3563,665	*	*	*	*	*	*	*
!LO:LB:g=original	!	!	!	!	!	!	!
=22-	=22-	=22-	=22-	=22-	=22-	=22-	=22-
0C	-tum	2r	.	1c	-tum	2r	.
.	.	2c\	te	.	.	2ee\	te
.	.	2.c\	ſpi-	2r	.	2.ee\	ſpi-
*	*	*	*	*	*ij	*	*
.	.	.	.	2g\	te	.	.
.	.	4c\	-ri-	.	.	4ee\	-ri-
=23-	=23-	=23-	=23-	=23-	=23-	=23-	=23-
!	!	!	!	!	!	!LO:SIC:v:t=custos ee	!
0r	.	2Gny/	-tum	2.g\	spi-	2b\	-tum
*	*	*	*	*	*	*xywh-#622:1045,2160,3493,821	*
!	!	!	!	!	!	!LO:LB:g=original	!
.	.	1c	ſan-	.	.	1ee	ſan-
.	.	.	.	4g\	-ri-	.	.
.	.	.	.	2c\	-tum	.	.
.	.	2B\	-ctum	1g\	san-	2dd\	-ctum
=24-	=24-	=24-	=24-	=24-	=24-	=24-	=24-
0r	.	2G/	pa-	.	.	2b\	pa-
.	.	4A/	-ra-	2f\	-ctum	2.cc\	-ra-
.	.	4B\	.	.	.	.	.
.	.	4c\	.	2e\	pa-	.	.
.	.	4d\	.	.	.	4b\	.
.	.	2e\	.	1g\	-ra-	4b\	.
.	.	.	.	.	.	8a\	.
.	.	.	.	.	.	8gny\	.
=25-	=25-	=25-	=25-	=25-	=25-	=25-	=25-
0r	.	1d	-cli-	.	.	2.a\	.
.	.	.	.	2f#X\	-cli-	.	.
.	.	.	.	.	.	4a\	-cli-
.	.	1G	-tum	1g	-tum	1b	-tum
*	*	*	*	*	*Xij	*	*
=26-	=26-	=26-	=26-	=26-	=26-	=26-	=26-
0C	ſan-	0c	ſan-	0e	ſan-	0g	ſan-
=27-	=27-	=27-	=27-	=27-	=27-	=27-	=27-
1C	-cta(m)	1c	-cta(m)	1e	-cta(m)	1g	-ctam
1F	et	1c	et	1.fny	et	1.a	et
=28-	=28-	=28-	=28-	=28-	=28-	=28-	=28-
!	!	!LO:SIC:v:t=custos A	!	!	!	!	!
1C	in-	1c	in	.	.	.	.
*	*	*xywh-#318:1023,2105,3457,899	*	*	*	*	*
!	!	!LO:LB:g=original	!	!	!	!	!
.	.	.	.	2e\	in-	1g	in-
1D	-di-	1A	di-	1d	-di-	.	.
.	.	.	.	.	.	2f/	-di-
=29-	=29-	=29-	=29-	=29-	=29-	=29-	=29-
2.E\	-ui-	2.G#X/	-ui-	2.B/	-ui-	2.e/	-ui-
4E\	-du-	4G#/	-dam	4B/	-du-	4e/	-du-
!	!	!	!	!LO:SIC:v:t=custos c#X	!	!	!
1E	-am	1G#	.	1B	-am	1e	-am
*	*	*	*	*xywh-#470:841,2798,3573,752	*	*	*
!	!	!	!	!LO:LB:g=original	!	!	!
=30-	=30-	=30-	=30-	=30-	=30-	=30-	=30-
0r	.	2A/	Tri-	2c#X\	Tri-	2e/	Tri-
.	.	2d\	-ni-	2d\	-ni-	2f/	-ni-
!	!	!	!	!	!	!LO:SIC:v:t=custos g	!
.	.	1c	-ta-	1e	-ta-	1g	-ta-
*	*	*	*	*	*	*xywh-#622:1058,2730,3454,782	*
!	!	!	!	!	!	!LO:LB:g=original	!
=31-	=31-	=31-	=31-	=31-	=31-	=31-	=31-
0r	.	1c	-tem	1e	-tem	1g	-tem
.	.	2.F/	to-	2.f\	to-	2.a\	to-
.	.	4C/	-to	4e\	-to	4g/	-to
=32-	=32-	=32-	=32-	=32-	=32-	=32-	=32-
0r	.	1D	cor-	1d	cor-	1f	cor-
.	.	2A/	-de	2cny\	-de	2e/	-de
.	.	2A/	et	1c\	et	2e/	et
=33-	=33-	=33-	=33-	=33-	=33-	=33-	=33-
0r	.	1F	o-	.	.	1a	o-
.	.	.	.	2d\	o-	.	.
.	.	2E/	-re	1e	-re	1g	-re
.	.	2.c\	con-	.	.	.	.
=34-	=34-	=34-	=34-	=34-	=34-	=34-	=34-
0r	.	.	.	2.A/	con-	2.cc\	con-
.	.	4B\	.	.	.	.	.
.	.	4A/	.	.	.	.	.
.	.	4Gny/	.	4B/	.	4b\	.
.	.	2.F/	.	1c	.	4a\	.
.	.	.	.	.	.	4g/	.
.	.	.	.	.	.	1a\	.
.	.	4E/	.	.	.	.	.
=35-	=35-	=35-	=35-	=35-	=35-	=35-	=35-
0r	.	2D/	.	2f\	-fi-	.	.
!	!	!LO:SIC:v:t=custos A	!	!	!	!	!
.	.	2D/	-fi-	1d	-te-	2f/	-fi-
*	*	*xywh-#318:939,2720,3534,768	*	*	*	*	*
!	!	!LO:LB:g=original	!	!	!	!	!
.	.	0A	-te-	.	.	0e	-te-
.	.	.	.	4c#X\	.	.	.
.	.	.	.	4B/	.	.	.
=36-	=36-	=36-	=36-	=36-	=36-	=36-	=36-
0r	.	.	.	1c#X	.	.	.
.	.	1D	-mur	0d	-mur	0f#X	-mur
=37-	=37-	=37-	=37-	=37-	=37-	=37-	=37-
0D	Lau-	0A	Lau-	.	.	.	.
.	.	.	.	1r	.	1f#X	Lau-
=38-	=38-	=38-	=38-	=38-	=38-	=38-	=38-
0G	-da-	0B	-da-	0d	Lau-	0g	-da-
=39-	=39-	=39-	=39-	=39-	=39-	=39-	=39-
!	!	!	!	!LO:SIC:v:t=custos c	!	!	!
2C/	-mus	2c\	-mus	0g	-da-	1e	-mus
*	*	*	*	*xywh-#470:911,3378,3519,728	*	*	*
!	!	!	!	!LO:LB:g=original	!	!	!
1c	at-	1e	at-	.	.	.	.
.	.	.	.	.	.	1r	.
2B\	-que	2d\	-que	.	.	.	.
=40-	=40-	=40-	=40-	=40-	=40-	=40-	=40-
2A\	be-	2f\	be-	0cny	-mus	0a	lau-
2G\	-ne-	2e\	-ne-	.	.	.	.
2.F\	-di-	4A/	-di-	.	.	.	.
.	.	4B\	.	.	.	.	.
.	.	1c\	.	.	.	.	.
!LO:SIC:v:t=custos D	!	!	!	!	!	!	!
4E\	.	.	.	.	.	.	.
*xywh-#166:1041,2846,3449,698	*	*	*	*	*	*	*
!LO:LB:g=original	!	!	!	!	!	!	!
=41-	=41-	=41-	=41-	=41-	=41-	=41-	=41-
!	!	!	!	!	!	!LO:SIC:v:t=custos g	!
1.D	.	.	.	1r	.	0dd	-da-
*	*	*	*	*	*	*xywh-#622:915,3280,3597,750	*
!	!	!	!	!	!	!LO:LB:g=original	!
.	.	4B\	.	.	.	.	.
.	.	4A\	.	.	.	.	.
.	.	2.B\	.	2r	.	.	.
2D/	-ci-	.	.	1f\	at-	.	.
.	.	4B\	-ci-	.	.	.	.
=42-	=42-	=42-	=42-	=42-	=42-	=42-	=42-
1C	-mus	1c	-mus	.	.	2g/	-mus
.	.	.	.	2e\	-que	1cc	at-
1r	.	1r	.	2a\	be-	.	.
.	.	.	.	2g\	-ne-	2b\	-que
=43-	=43-	=43-	=43-	=43-	=43-	=43-	=43-
*	*ij	*	*	*	*	*	*
0D	Lau-	1.A	lau-	2.f\	-di-	2a\	be-
.	.	.	.	.	.	2g/	-ne-
.	.	.	.	4e\	.	.	.
.	.	.	.	2.d\	.	2.fny/	-di-
.	.	1d\	-da-	.	.	.	.
.	.	.	.	4c\	.	4e/	.
=44-	=44-	=44-	=44-	=44-	=44-	=44-	=44-
0G	-da-	.	.	4B/	.	1.d	.
.	.	.	.	4A/	.	.	.
.	.	2G/	-mus	1B	.	.	.
.	.	1r	.	.	.	.	.
.	.	.	.	2B/	-ci-	2d/	-ci-
=45-	=45-	=45-	=45-	=45-	=45-	=45-	=45-
!	!	!LO:SIC:v:t=custos A	!	!	!	!	!
2C/	-mus	1r	.	2.c/	-mus	2e/	-mus
*	*	*xywh-#318:923,3204,3542,868	*	*	*	*	*
!	!	!LO:LB:g=original	!	!	!	!	!
1c	at-	.	.	.	.	1ee	at-
.	.	.	.	4d\	.	.	.
.	.	0.A	lau-	0e	.	.	.
2B\	-que	.	.	.	.	2dd\	-que
=46-	=46-	=46-	=46-	=46-	=46-	=46-	=46-
2A\	be-	.	.	.	.	2cc\	be-
2G\	-ne-	.	.	.	.	2b\	-ne-
2.F\	-di-	.	.	2r	.	2.a\	-di-
.	.	.	.	1c\	lau-	.	.
4E\	.	.	.	.	.	4g/	.
=47-	=47-	=47-	=47-	=47-	=47-	=47-	=47-
1.D	.	0d	-da-	.	.	1.f	.
.	.	.	.	4B/	.	.	.
!	!	!	!	!LO:SIC:v:t=custos B	!	!	!
.	.	.	.	4A/	.	.	.
*	*	*	*	*xywh-#470:872,3918,3542,721	*	*	*
!	!	!	!	!LO:LB:g=original	!	!	!
.	.	.	.	1B	-da-	.	.
2D/	-ci-	.	.	.	.	2f/	-ci-
=48-	=48-	=48-	=48-	=48-	=48-	=48-	=48-
1C	-mus	2G/	-mus	2c/	-mus	1e	-mus
*	*Xij	*	*	*	*	*	*
.	.	1c	at-	1e	at-	.	.
1r	.	.	.	.	.	0g	be-
.	.	2B\	-que	2d\	-que	.	.
=49-	=49-	=49-	=49-	=49-	=49-	=49-	=49-
0r	.	2e\	be-	2c/	be-	.	.
.	.	2d\	-ne-	2B/	-ne-	.	.
!	!	!	!	!	!	!LO:SIC:v:t=custos cc	!
.	.	2.c\	-di-	4e\	-di-	1g	-ne-
*	*	*	*	*	*	*xywh-#622:1058,3887,3422,705	*
!	!	!	!	!	!	!LO:LB:g=original	!
.	.	.	.	4f\	.	.	.
.	.	.	.	1g\	.	.	.
.	.	4B\	.	.	.	.	.
=50-	=50-	=50-	=50-	=50-	=50-	=50-	=50-
0r	.	1.A	.	.	.	1.cc	-di-
.	.	.	.	4f\	.	.	.
.	.	.	.	4e\	.	.	.
.	.	.	.	2.f#X\	.	.	.
.	.	2A/	-ci-	.	.	2a\	-ci-
.	.	.	.	4f#\	-ci-	.	.
=51||-	=51||-	=51||-	=51||-	=51||-	=51||-	=51||-	=51||-
*M3/1	*	*M3/1	*	*M3/1	*	*M3/1	*
*met(O|)	*	*met(O|)	*	*met(O|)	*	*met(O|)	*
1%3r	.	0G	-mus	00.g	-mus	00.b	-mus
.	.	1r	.	.	.	.	.
=52-	=52-	=52-	=52-	=52-	=52-	=52-	=52-
0G	ti-	0d	ti-	.	.	.	.
1E	-bi	1e	-bi	.	.	.	.
=53-	=53-	=53-	=53-	=53-	=53-	=53-	=53-
1.A	glo-	1.c	glo-	1%3r	.	1%3r	.
!LO:SIC:v:t=custos F	!	!	!	!	!	!	!
2G\	-ri-	2B\	-ri-	.	.	.	.
*xywh-#166:987,3392,3520,747	*	*	*	*	*	*	*
!LO:LB:g=original	!	!	!	!	!	!	!
1F	-a	1A	-a	.	.	.	.
=54-	=54-	=54-	=54-	=54-	=54-	=54-	=54-
!	!	!LO:SIC:v:t=custos G	!	!	!	!	!
1G	in	1B	in	0d	ti-	0g	ti-
*	*	*xywh-#318:893,3804,3557,837	*	*	*	*	*
!	!	!LO:LB:g=original	!	!	!	!	!
1.E	ſe-	1.G	ſe-	.	.	.	.
.	.	.	.	1c	-bi	1e	-bi
2E\	-cu-	2G/	-cu-	.	.	.	.
=55-	=55-	=55-	=55-	=55-	=55-	=55-	=55-
0D	-la	0A	-la	1.fny	glo-	1.a	glo-
.	.	.	.	2e\	-ri-	2g/	-ri-
!	!	!	!	!LO:SIC:v:t=custos G	!	!	!
1r	.	1r	.	1d	-a	1f	-a
*	*	*	*	*xywh-#470:927,4467,3503,799	*	*	*
!	!	!	!	!LO:LB:g=original	!	!	!
=56-	=56-	=56-	=56-	=56-	=56-	=56-	=56-
*	*ij	*	*ij	*	*	*	*
0C	ti-	0e	ti-	1G	in	1g	in
.	.	.	.	1.c	ſe-	1.e	ſe-
1AA	-bi	1c	-bi	.	.	.	.
.	.	.	.	2c\	-cu-	2e/	-cu-
=57-	=57-	=57-	=57-	=57-	=57-	=57-	=57-
1.D	glo-	1.f	glo-	0A	-la	0d	-la
2C/	-ri-	2e\	-ri-	.	.	.	.
1BB	-a	1d	-a	1r	.	1r	.
=58-	=58-	=58-	=58-	=58-	=58-	=58-	=58-
*	*	*	*	*	*ij	*	*ij
1C	in	1G	in	0e	ti-	0cc	ti-
1.AA	se-	1.A	se-	.	.	.	.
.	.	.	.	1f#X	-bi	1a	-bi
2AA/	-cu-	2A/	-cu-	.	.	.	.
=59-	=59-	=59-	=59-	=59-	=59-	=59-	=59-
0GGny	-la	0B	-la	1.g	glo-	1.dd	glo-
*	*Xij	*	*Xij	*	*	*	*
.	.	.	.	2e\	-ri-	2cc\	-ri-
1r	.	1r	.	1d	-a	1b	-a
=60-	=60-	=60-	=60-	=60-	=60-	=60-	=60-
0F	ti-	0c	ti-	1a	in	1cc	in
.	.	.	.	1.fny	se-	1.a	ſe-
1D	-bi	1d	-bi	.	.	.	.
!	!	!	!	!	!	!LO:SIC:v:t=custos g	!
.	.	.	.	2f\	-cu-	2a\	-cu-
*	*	*	*	*	*	*xywh-#622:889,4399,3610,737	*
!	!	!	!	!	!	!LO:LB:g=original	!
=61-	=61-	=61-	=61-	=61-	=61-	=61-	=61-
1.G	glo-	1.B	glo-	0d	-la	0.g	-la
*	*	*	*	*	*Xij	*	*Xij
2F\	-ri-	2A/	-ri-	.	.	.	.
1E	-a	1G	-a	1r	.	.	.
=62-	=62-	=62-	=62-	=62-	=62-	=62-	=62-
1F	in	1A	in	0f	ti-	1c	in
!	!	!LO:SIC:v:t=custos B	!	!	!	!	!
1.D	ſe-	1A	ſe-	.	.	1.f	ſe-
*	*	*xywh-#318:916,4303,3511,829	*	*	*	*	*
!	!	!LO:LB:g=original	!	!	!	!	!
.	.	1B	-cu-	1d	-bi	.	.
!LO:SIC:v:t=custos C	!	!	!	!	!	!	!
2D/	-cu-	.	.	.	.	2f/	-cu-
=63-	=63-	=63-	=63-	=63-	=63-	=63-	=63-
*xywh-#166:1041,3981,3421,665	*	*	*	*	*	*	*
0C	-la	0c	-la	1.g	glo-	0e	-la
.	.	.	.	2f\	-ri-	.	.
1C	in	1r	.	1e	-a	1r	.
=64-	=64-	=64-	=64-	=64-	=64-	=64-	=64-
*	*	*	*ij	*	*	*	*
0F	ſe-	0c	ti-	1f	in	0f	ti-
.	.	.	.	1.d	ſe-	.	.
1G	-cu-	1B	-bi	.	.	1d	-bi
.	.	.	.	2d\	-cu-	.	.
=65-	=65-	=65-	=65-	=65-	=65-	=65-	=65-
0C	-la	1.e	glo-	0c	-la	1.g	glo-
.	.	2d\	-ri-	.	.	2f/	-ri-
1C	in	1c	-a	1g	in	1e	-a
=66-	=66-	=66-	=66-	=66-	=66-	=66-	=66-
0FF	ſe-	1A	in	0f	ſe-	1cc	in
.	.	1.c	se-	.	.	1.a	ſe-
1FF	-cu-	.	.	1f	-cu-	.	.
.	.	2c\	-cu-	.	.	2a\	-cu-
=67-	=67-	=67-	=67-	=67-	=67-	=67-	=67-
00.C	-la.	00.c	-la.	00.e	-la.	00.g	-la.
*	*	*	*Xij	*	*	*	*
=68-	=68-	=68-	=68-	=68-	=68-	=68-	=68-
.	.	.	.	.	.	.	.
=-	=-	=-	=-	=-	=-	=-	=-
*-	*-	*-	*-	*-	*-	*-	*-
!!!system-decoration: s1,s2,s3,s4
!!!ENC: Andrzej Gręziak
!!!END: 2022-07-01
!!!ENC: Julita Ruszuk
!!!END: 2022-07-05
!!!YEC: Copyright 2022 Narodowy Instytut Fryderyka Chopina (https://polishscores.org)
!!!YEM: License CC-BY-4.0 (https://creativecommons.org/licenses/by/4.0)
!!!IIIF: https://repozytorium.nifc.pl/islandora/object/pl-gd%3A57883/datastream/IIIF/view
!!!ENC-iiif: Lidia Bialucha
!!!END-iiif: 2022-09-08
